;FLAVOR:Marlin
;Layer height: 1

;Generated with Cura_SteamEngine 3.6.0
M82 ;absolute extrusion mode
;start
;V2023
M220 S100
M109 S260 G90
M566 E100:200:200 ;setmaximuminstantaneousspeedchanges(mm/min)
M203 E600:600:600 ;setmaximumspeeds(mm/min)
M201 E300:300:300 ;setaccelerations(mm/s^2)
;M572D0:1:2S0.02;enablepressureadvance
M83 ;relativeextrusion
T0
G92 X0 Y0 Z0 E0 ;setallaxistozero
G28 ;homeAll
G1 Z110 F1900
G4 S4
G1 Z125 F1900
G4 S4
G1 Z140 F1900
G4 S4
G1 Z155 F1900
G4 S4
G1 Z170 F1900
G4 S4
G10
;M207S1R-10F600;1mmretractions
G1 X155 Y230 E10 F2000 ;nozzlecleaning
G91
G0 X-12 Y26 F10000
G0 X12 Y-26 F10000
G0 X-6 Y13 F10000
G0 X-6 Y-13 F10000
G0 X12 Y26 F10000
G0 X-6 Y-13 F10000
G0 X-6 F10000
G0 X12 F10000
G0 X-6 F10000
G0 Y13 F10000
G90
G1 X155 Y230 F10000
G1 Z-10 F10000
G91
G0 X-12 Y26 F10000
G0 X12 Y-26 F10000
G0 X-6 Y13 F10000
G0 X-6 Y-13 F10000
G0 X12 Y26 F10000
G0 X-6 Y-13 F10000
G0 X-6 F10000
G0 X12 F10000
G0 X-6 F10000
G0 Y13 F10000
G90
G1 X75 Y0 F10000
G92 Z0 ;setZ0

M83 ;relative extrusion mode
;LAYER_COUNT:272
;LAYER:0
M107
;MESH:LeftgInput.stl
G0 F420 X75.771 Y-.26 Z1.1
;TYPE:WALL-OUTER
G1 F510 X79.256 Y-.26 E1.47498
G1 X79.257 Y-.26 E0.00042
G1 X88.023 Y-.26 E3.7101002
G1 X88.934 Y-.26 E0.385575
G1 X90.44 Y-.26 E0.637395
G1 X88.934 Y0.642 E0.21839 F1020
G1 X88.07 Y0.932 E0.22564
G1 X87.678 Y1.064 E0.11671
G1 X85.172 Y1.549 E0.72021
G1 X82.835 Y1.584 E0.65948
G1 X79.467 Y1.051 E0.96214
G1 X79.056 Y0.905 E0.12307
G1 X75.771 Y-.26 E0.49885
;MESH:NONMESH
G0 F420 X75.869 Y-.244
G0 X80.833 Y1.092
;TIME_ELAPSED:15.21
;LAYER:1
M106 S1.3
;MESH:LeftgInput.stl
G0 F579 X80.833 Y1.092 Z2.1
;TYPE:WALL-INNER
G1 F1089 X80.873 Y1.092 E0.00611
G1 X84.731 Y1.093 E0.58964
G1 X86.692 Y1.094 E0.29971
G1 X84.731 Y1.297 E0.02157
G1 X80.873 Y1.101 E0.04294
G1 X80.833 Y1.092 E0.00017
G0 F579 X79.654 Y0.964
G0 X72.92 Y-.239
G0 X72.834 Y-.26
;TYPE:WALL-OUTER
G1 F537 X73.758 Y-.26 E0.16947
G1 X75.736 Y-.26 E0.362775
G1 X90.692 Y-.256 E2.742975
G1 X90.741 Y-.256 E0.008985
G1 X92.214 Y-.255 E0.27015
G1 X90.741 Y0.919 E0.13136 F1074
G1 X90.698 Y0.942 E0.0059
G1 X88.974 Y1.861 E0.23887
G1 X86.936 Y2.427 E0.25861
G1 X84.768 Y2.65 E0.26648
G1 X80.685 Y2.443 E0.49986
G1 X77.729 Y1.775 E0.37054
G1 X75.592 Y0.912 E0.28179
G1 X73.758 Y0.172 E0.16582
G1 X72.834 Y-.26 E0.02962
;MESH:NONMESH
G0 F579 X72.92 Y-.239
G0 X76.892 Y1.09
;TIME_ELAPSED:20.10
;LAYER:2
M106 S2.6
;MESH:LeftgInput.stl
G0 F738 X76.892 Y1.09 Z3.1
;TYPE:WALL-INNER
G1 F1158 X78.608 Y1.09 E0.26227
G1 X81.301 Y1.09 E0.41159
G1 X84.846 Y1.09 E0.5418
G1 X87.301 Y1.09 E0.37521
G1 X88.719 Y1.09 E0.21672
G1 X89.575 Y1.09 E0.13083
G1 X88.719 Y1.477 E0.02672
G1 X87.301 Y1.764 E0.08033
G1 X84.846 Y1.949 E0.19274
G1 X81.301 Y1.869 E0.2961
G1 X78.608 Y1.553 E0.17289
G1 X76.892 Y1.09 E0.04783
G0 F738 X70.81 Y-.21
G0 X70.687 Y-.26
;TYPE:WALL-OUTER
G1 F564 X73.092 Y-.26 E0.44109
G1 X73.093 Y-.26 E0.00018
G1 X92.095 Y-.26 E3.485025
G1 X93.587 Y-.26 E0.27363
G1 X93.733 Y-.26 E0.026775
G1 X93.587 Y-.106 E0.010575
G1 X92.421 Y0.825 E0.1074 F1128
G1 X91.097 Y1.883 E0.20722
G1 X89.136 Y2.77 E0.26316
G1 X87.487 Y3.104 E0.20572
G1 X84.876 Y3.3 E0.32014
G1 X81.209 Y3.218 E0.44847
G1 X78.355 Y2.883 E0.35135
G1 X75.925 Y2.227 E0.30775
G1 X73.365 Y1.164 E0.33892
G1 X72.811 Y0.869 E0.07674
G1 X70.687 Y-.26 E0.15143
;MESH:NONMESH
G0 F738 X70.773 Y-.237
G0 X74.009 Y1.09
;TIME_ELAPSED:25.55
;LAYER:3
M106 S3.9
;MESH:LeftgInput.stl
G0 F897 X74.009 Y1.09 Z4.1
;TYPE:WALL-INNER
G1 F1227 X74.134 Y1.09 E0.0191
G1 X76.216 Y1.09 E0.3182
G1 X78.288 Y1.09 E0.31668
G1 X87.988 Y1.09 E1.48251
G1 X89.442 Y1.09 E0.22222
G1 X91.058 Y1.09 E0.24698
G1 X91.385 Y1.09 E0.04998
G1 X91.058 Y1.329 E0.01295
G1 X89.442 Y1.902 E0.09911
G1 X87.988 Y2.051 E0.13245
G1 X78.288 Y2.019 E0.93461
G1 X76.216 Y1.731 E0.16849
G1 X74.134 Y1.161 E0.085
G1 X74.009 Y1.09 E0.00255
G0 F897 X69.028 Y-.21
G0 X68.932 Y-.26
;TYPE:WALL-OUTER
G1 F591 X71.187 Y-.26 E0.41358
G1 X71.188 Y-.26 E0.00018
G1 X93.492 Y-.26 E4.09062
G1 X93.493 Y-.26 E0.00018
G1 X94.908 Y-.26 E0.25951502
G1 X93.923 Y0.757 E0.09341 F1182
G1 X93.411 Y1.285 E0.08993
G1 X91.694 Y2.535 E0.25968
G1 X89.741 Y3.229 E0.25342
G1 X88.054 Y3.401 E0.20734
G1 X78.193 Y3.369 E1.2057
G1 X75.942 Y3.056 E0.27787
G1 X73.612 Y2.418 E0.29537
G1 X70.89 Y0.86 E0.38348
G1 X68.932 Y-.26 E0.14252
;MESH:NONMESH
G0 F897 X68.974 Y-.225
G0 X71.907 Y1.09
;TIME_ELAPSED:31.39
;LAYER:4
M106 S5.2
;MESH:LeftgInput.stl
G0 F1056 X71.907 Y1.09 Z5.1
;TYPE:WALL-INNER
G1 F1296 X72.737 Y1.09 E0.12685
G1 X74.61 Y1.09 E0.28626
G1 X90.339 Y1.09 E2.40395
G1 X91.992 Y1.09 E0.25264
G1 X92.831 Y1.09 E0.12823
G1 X91.992 Y1.656 E0.04495
G1 X90.339 Y2.051 E0.13489
G1 X74.61 Y1.97 E1.47623
G1 X72.737 Y1.474 E0.1291
G1 X71.907 Y1.09 E0.02624
G0 F1056 X67.383 Y-.21
G0 X67.279 Y-.26
;TYPE:WALL-OUTER
G1 F618 X69.21 Y-.26 E0.35415
G1 X69.211 Y-.26 E0.00018
G1 X94.699 Y-.26 E4.67457
G1 X94.7 Y-.26 E0.00018
G1 X96.033 Y-.26 E0.24447
G1 X95.148 Y0.737 E0.08868 F1236
G1 X94.223 Y1.779 E0.17036
G1 X92.546 Y2.912 E0.24745
G1 X90.495 Y3.402 E0.25783
G1 X74.431 Y3.319 E1.96415
G1 X72.279 Y2.749 E0.2722
G1 X70.382 Y1.872 E0.25553
G1 X68.871 Y0.834 E0.22414
G1 X67.279 Y-.26 E0.12341
;MESH:NONMESH
G0 F1056 X67.327 Y-.225
G0 X70.047 Y1.09
;TIME_ELAPSED:37.53
;LAYER:5
M106 S6.5
;MESH:LeftgInput.stl
G0 F1215 X70.047 Y1.09 Z6.1
;TYPE:WALL-INNER
G1 F1365 X70.397 Y1.09 E0.05349
G1 X71.957 Y1.09 E0.23842
G1 X73.919 Y1.09 E0.29986
G1 X92.602 Y1.09 E2.85543
G1 X93.452 Y1.09 E0.12991
G1 X94.103 Y1.09 E0.0995
G1 X93.452 Y1.634 E0.04136
G1 X92.602 Y1.979 E0.07101
G1 X73.919 Y2.045 E1.75632
G1 X71.957 Y1.875 E0.17504
G1 X70.397 Y1.345 E0.09384
G1 X70.047 Y1.09 E0.01409
G0 F1215 X66.02 Y-.236
G0 X65.904 Y-.26
;TYPE:WALL-OUTER
G1 F645 X67.744 Y-.26 E0.337455
G1 X67.745 Y-.26 E0.00018
G1 X95.76 Y-.26 E5.13804
G1 X95.761 Y-.26 E0.00018
G1 X97.053 Y-.26 E0.23695499
G1 X96.218 Y0.727 E0.08638 F1290
G1 X95.193 Y1.939 E0.19408
G1 X94.157 Y2.805 E0.1651
G1 X92.867 Y3.328 E0.1702
G1 X73.863 Y3.395 E2.32361
G1 X71.677 Y3.206 E0.26828
G1 X69.768 Y2.557 E0.24653
G1 X67.391 Y0.824 E0.35967
G1 X65.904 Y-.26 E0.11803
;MESH:NONMESH
G0 F1215 X65.965 Y-.258
G0 X68.377 Y1.09
;TIME_ELAPSED:43.90
;LAYER:6
M106 S7.8
;MESH:LeftgInput.stl
G0 F1374 X68.377 Y1.09 Z7.1
;TYPE:WALL-INNER
G1 F1434 X68.687 Y1.09 E0.04738
G1 X70.126 Y1.09 E0.21993
G1 X71.438 Y1.09 E0.20052
G1 X93.519 Y1.09 E3.37477
G1 X93.913 Y1.09 E0.06022
G1 X94.856 Y1.09 E0.14412
G1 X95.108 Y1.09 E0.03851
G1 X94.856 Y1.396 E0.01966
G1 X93.913 Y1.968 E0.0774
G1 X93.519 Y2.055 E0.03832
G1 X71.438 Y2.046 E2.16242
G1 X70.126 Y1.915 E0.11999
G1 X68.687 Y1.304 E0.092
G1 X68.377 Y1.09 E0.01101
G0 F1374 X64.659 Y-.21
G0 X64.544 Y-.26
;TYPE:WALL-OUTER
G1 F672 X66.129 Y-.26 E0.29070002
G1 X66.13 Y-.26 E0.00018
G1 X96.699 Y-.26 E5.606445
G1 X96.7 Y-.26 E0.00018
G1 X97.971 Y-.26 E0.2331
G1 X97.162 Y0.721 E0.08517 F1344
G1 X95.754 Y2.43 E0.27074
G1 X94.421 Y3.238 E0.19059
G1 X93.666 Y3.405 E0.09454
G1 X71.373 Y3.396 E2.72573
G1 X69.786 Y3.237 E0.19501
G1 X68.033 Y2.493 E0.23284
G1 X66.338 Y1.323 E0.25182
G1 X65.733 Y0.789 E0.09867
G1 X64.544 Y-.26 E0.1032
;MESH:NONMESH
G0 F1374 X64.6 Y-.225
G0 X66.825 Y1.09
;TIME_ELAPSED:50.45
;LAYER:7
M106 S9.1
;MESH:LeftgInput.stl
G0 F1533 X66.825 Y1.09 Z8.1
;TYPE:WALL-INNER
G1 F1503 X67.796 Y1.09 E0.1484
G1 X69.153 Y1.09 E0.2074
G1 X94.784 Y1.09 E3.91733
G1 X95.393 Y1.09 E0.09308
G1 X96.237 Y1.09 E0.12899
G1 X95.393 Y1.775 E0.05867
G1 X94.784 Y2.019 E0.05645
G1 X69.153 Y2.023 E2.43298
G1 X67.796 Y1.661 E0.11035
G1 X66.825 Y1.09 E0.0469
G0 F1533 X63.493 Y-.21
G0 X63.366 Y-.26
;TYPE:WALL-OUTER
G1 F699 X64.844 Y-.26 E0.271065
G1 X97.701 Y-.26 E6.0260706
G1 X97.702 Y-.26 E0.00018
G1 X98.857 Y-.26 E0.21183
G1 X98.192 Y0.685 E0.07859 F1398
G1 X97.277 Y1.984 E0.19427
G1 X96.086 Y2.952 E0.18765
G1 X95.044 Y3.369 E0.13723
G1 X68.978 Y3.373 E3.18705
G1 X67.269 Y2.917 E0.21627
G1 X65.667 Y1.975 E0.22723
G1 X64.426 Y0.77 E0.2115
G1 X63.366 Y-.26 E0.09699
;MESH:NONMESH
G0 F1533 X63.447 Y-.227
G0 X65.362 Y1.041
G0 X65.541 Y1.09
;TIME_ELAPSED:57.14
;LAYER:8
M106 S10.4
;MESH:LeftgInput.stl
G0 F1692 X65.541 Y1.09 Z9.1
;TYPE:WALL-INNER
G1 F1572 X65.77 Y1.09 E0.035
G1 X66.897 Y1.09 E0.17225
G1 X67.907 Y1.09 E0.15436
G1 X96.023 Y1.09 E4.29713
G1 X96.54 Y1.09 E0.07902
G1 X97.124 Y1.09 E0.08926
G1 X97.143 Y1.09 E0.0029
G1 X97.124 Y1.119
G1 X96.54 Y1.72 E0.0498
G1 X96.023 Y1.981 E0.04837
G1 X67.907 Y2.046 E2.64737
G1 X66.897 Y1.903 E0.09246
G1 X65.77 Y1.323 E0.07789
G1 X65.541 Y1.09 E0.0137
G0 F1692 X62.433 Y-.21
G0 X62.314 Y-.26
;TYPE:WALL-OUTER
G1 F726 X63.746 Y-.26 E0.262635
G1 X63.747 Y-.26 E0.00018
G1 X98.539 Y-.26 E6.380955
G1 X98.541 Y-.26 E0.00036
G1 X99.655 Y-.26 E0.20431499
G1 X99.04 Y0.67 E0.07627 F1452
G1 X98.181 Y1.968 E0.19031
G1 X97.35 Y2.824 E0.14587
G1 X96.345 Y3.33 E0.13758
G1 X67.812 Y3.396 E3.4887
G1 X66.483 Y3.208 E0.16411
G1 X64.958 Y2.423 E0.20971
G1 X63.32 Y0.76 E0.2854
G1 X62.314 Y-.26 E0.09437
;MESH:NONMESH
G0 F1692 X62.375 Y-.225
G0 X64.028 Y0.998
G0 X64.256 Y1.095
;TIME_ELAPSED:63.91
;LAYER:9
M106 S11.7
;MESH:LeftgInput.stl
G0 F1851 X64.256 Y1.095 Z10.1
;TYPE:WALL-INNER
G1 F1641 X64.943 Y1.095 E0.105
G1 X66.196 Y1.095 E0.1915
G1 X96.646 Y1.095 E4.65385
G1 X97.134 Y1.095 E0.07458
G1 X97.551 Y1.095 E0.06373
G1 X97.864 Y1.095 E0.04784
G1 X97.551 Y1.581 E0.03763
G1 X97.134 Y1.921 E0.04355
G1 X96.646 Y2.058 E0.04706
G1 X66.196 Y2.047 E2.97269
G1 X64.943 Y1.608 E0.10346
G1 X64.256 Y1.095 E0.03814
G0 F1851 X61.377 Y-.189
G0 X61.256 Y-.255
;TYPE:WALL-OUTER
G1 F753 X62.552 Y-.255 E0.23769
G1 X62.553 Y-.255 E0.00018
G1 X99.239 Y-.255 E6.728325
G1 X99.24 Y-.255 E0.00018
G1 X100.338 Y-.255 E0.20137501
G1 X99.744 Y0.669 E0.07538 F1506
G1 X98.57 Y2.492 E0.26512
G1 X97.77 Y3.145 E0.12626
G1 X96.833 Y3.408 E0.11899
G1 X65.967 Y3.397 E3.77394
G1 X64.299 Y2.813 E0.21608
G1 X63.105 Y1.921 E0.18223
G1 X62.095 Y0.733 E0.19065
G1 X61.256 Y-.255 E0.08658
G0 F1851 X61.63 Y0.025
;MESH:NONMESH
G0 X63.23 Y1.095
;TIME_ELAPSED:70.74
;LAYER:10
M106 S13
;MESH:LeftgInput.stl
G0 F2010 X63.23 Y1.095 Z11.1
;TYPE:WALL-INNER
G1 F1710 X63.625 Y1.095 E0.06037
G1 X64.108 Y1.095 E0.07382
G1 X64.883 Y1.095 E0.11845
G1 X97.819 Y1.093 E5.0338
G1 X98.159 Y1.092 E0.05196
G1 X98.695 Y1.091 E0.08192
G1 X98.751 Y1.09 E0.00856
G1 X98.696 Y1.19
G1 X98.16 Y1.782 E0.05303
G1 X97.82 Y1.983 E0.03468
G1 X64.884 Y2.047 E3.09282
G1 X64.108 Y1.836 E0.07872
G1 X63.625 Y1.562 E0.03904
G1 X63.23 Y1.095 E0.03426
G0 F2010 X60.438 Y-.196
G0 X60.323 Y-.255
;TYPE:WALL-OUTER
G1 F780 X61.614 Y-.255 E0.236775
G1 X61.615 Y-.255 E0.00018
G1 X100.027 Y-.26 E7.04487
G1 X100.028 Y-.26 E0.00018
G1 X101.048 Y-.26 E0.187065
G1 X100.552 Y0.632 E0.07102 F1560
G1 X99.799 Y1.983 E0.18911
G1 X99.024 Y2.839 E0.14119
G1 X98.19 Y3.332 E0.11846
G1 X64.706 Y3.397 E4.09405
G1 X63.591 Y3.095 E0.14124
G1 X62.749 Y2.617 E0.11838
G1 X61.156 Y0.732 E0.30176
G1 X60.323 Y-.255 E0.0863
;MESH:NONMESH
G0 F2010 X60.391 Y-.228
G0 X61.731 Y0.926
G0 X62.08 Y1.09
;TIME_ELAPSED:77.62
;LAYER:11
M106 S14.3
;MESH:LeftgInput.stl
G0 F2169 X62.08 Y1.09 Z12.1
;TYPE:WALL-INNER
G1 F1779 X62.169 Y1.09 E0.0136
G1 X63.061 Y1.09 E0.13633
G1 X63.771 Y1.09 E0.10851
G1 X98.631 Y1.09 E5.32786
G1 X98.95 Y1.09 E0.04875
G1 X99.431 Y1.09 E0.07351
G1 X99.504 Y1.09 E0.01116
G1 X99.431 Y1.23
G1 X98.95 Y1.793 E0.05194
G1 X98.631 Y1.983 E0.03161
G1 X63.771 Y2.047 E3.28771
G1 X63.061 Y1.876 E0.06585
G1 X62.169 Y1.208 E0.06866
G1 X62.08 Y1.09 E0.00687
G0 F2169 X59.455 Y-.16
G0 X59.374 Y-.26
;TYPE:WALL-OUTER
G1 F807 X60.575 Y-.26 E0.22026001
G1 X60.576 Y-.26 E0.00018
G1 X100.741 Y-.26 E7.36638
G1 X100.742 Y-.26 E0.00018
G1 X101.73 Y-.26 E0.1812
G1 X101.273 Y0.617 E0.06921 F1614
G1 X100.556 Y1.992 E0.1896
G1 X99.832 Y2.84 E0.13633
G1 X99.004 Y3.332 E0.11776
G1 X63.611 Y3.397 E4.32746
G1 X62.475 Y3.124 E0.14285
G1 X61.205 Y2.173 E0.19399
G1 X60.096 Y0.7 E0.22544
G1 X59.374 Y-.26 E0.08117
G0 F2169 X59.561 Y-.209
;MESH:NONMESH
G0 X59.561 Y-.175
G0 X60.591 Y0.864
G0 X61.079 Y1.108
;TIME_ELAPSED:84.54
;LAYER:12
M106 S15.6
;MESH:LeftgInput.stl
G0 F2328 X61.079 Y1.108 Z13.1
;TYPE:WALL-INNER
G1 F1848 X62.002 Y1.108 E0.14107
G1 X62.568 Y1.108 E0.08651
G1 X99.208 Y1.094 E5.5999
G1 X99.519 Y1.093 E0.04753
G1 X99.93 Y1.092 E0.06282
G1 X100.12 Y1.091 E0.02904
G1 X99.931 Y1.459 E0.02266
G1 X99.52 Y1.916 E0.05057
G1 X99.209 Y2.048 E0.03179
G1 X62.569 Y2.047 E3.53598
G1 X62.002 Y1.86 E0.06233
G1 X61.079 Y1.108 E0.06781
G0 F2328 X58.551 Y-.191
G0 X58.431 Y-.241
;TYPE:WALL-OUTER
G1 F834 X59.583 Y-.241 E0.21127498
G1 X59.584 Y-.241 E0.00018
G1 X101.35 Y-.26 E7.6600046
G1 X101.351 Y-.26 E0.00018
G1 X102.333 Y-.26 E0.180105
G1 X101.884 Y0.614 E0.06888 F1668
G1 X101.052 Y2.232 E0.22245
G1 X100.325 Y3.04 E0.1329
G1 X99.485 Y3.398 E0.11164
G1 X62.352 Y3.397 E4.5402
G1 X61.341 Y3.063 E0.13018
G1 X59.96 Y1.938 E0.21779
G1 X59.093 Y0.703 E0.1845
G1 X58.431 Y-.241 E0.07844
;MESH:NONMESH
G0 F2328 X58.551 Y-.191
G0 X60.751 Y0.991
G0 X60.322 Y1.107
;TIME_ELAPSED:91.51
;LAYER:13
M106 S16.9
;MESH:LeftgInput.stl
G0 F2487 X60.322 Y1.107 Z14.1
;TYPE:WALL-INNER
G1 F1917 X60.825 Y1.107 E0.07688
G1 X60.977 Y1.107 E0.02323
G1 X61.932 Y1.107 E0.14596
G1 X99.873 Y1.098 E5.79874
G1 X100.109 Y1.097 E0.03607
G1 X100.43 Y1.096 E0.04906
G1 X100.753 Y1.095 E0.04937
G1 X100.431 Y1.673 E0.04763
G1 X100.11 Y1.979 E0.03986
G1 X99.874 Y2.059 E0.024
G1 X61.933 Y2.047 E3.67701
G1 X60.977 Y1.872 E0.09058
G1 X60.825 Y1.784
G1 X60.322 Y1.107 E0.05716
G0 F2487 X57.718 Y-.142
G0 X57.638 Y-.242
;TYPE:WALL-OUTER
G1 F861 X58.828 Y-.242 E0.21825
G1 X58.83 Y-.242 E0.00036
G1 X102.19 Y-.255 E7.952355
G1 X102.737 Y-.255 E0.100320004
G1 X102.961 Y-.256 E0.041084997
G1 X102.738 Y0.301 E0.03977 F1722
G1 X102.473 Y0.779 E0.05136
G1 X101.512 Y2.508 E0.24186
G1 X100.823 Y3.163 E0.11624
G1 X100.097 Y3.409 E0.09372
G1 X61.81 Y3.397 E4.6813
G1 X60.503 Y3.158 E0.16245
G1 X59.906 Y2.811 E0.08443
G1 X58.348 Y0.714 E0.31942
G1 X57.638 Y-.242 E0.08057
G0 F2487 X57.808 Y-.202
;MESH:NONMESH
G0 X57.807 Y-.157
G0 X58.872 Y0.802
G0 X59.455 Y1.095
;TIME_ELAPSED:98.44
;LAYER:14
M106 S18.2
;MESH:LeftgInput.stl
G0 F2646 X59.455 Y1.095 Z15.1
;TYPE:WALL-INNER
G1 F1986 X59.908 Y1.095 E0.06923
G1 X60.471 Y1.095 E0.08605
G1 X100.723 Y1.093 E6.15195
G1 X100.76 Y1.092 E0.00566
G1 X101.135 Y1.091 E0.05731
G1 X101.368 Y1.09 E0.03561
G1 X101.136 Y1.588 E0.04046
G1 X100.761 Y1.984 E0.04855
G1 X100.724 Y2.004 E0.00411
G1 X60.472 Y2.015 E3.7573
G1 X59.908 Y1.724 E0.06614
G1 X59.455 Y1.095 E0.05191
G0 F2646 X56.94 Y-.205
G0 X56.818 Y-.255
;TYPE:WALL-OUTER
G1 F888 X57.987 Y-.255 E0.214395
G1 X57.989 Y-.255 E0.00036
G1 X102.546 Y-.26 E8.17188
G1 X102.548 Y-.26 E0.00036
G1 X103.487 Y-.26 E0.172215
G1 X103.09 Y0.592 E0.06646 F1776
G1 X102.268 Y2.356 E0.23795
G1 X101.589 Y3.073 E0.12074
G1 X101.061 Y3.354 E0.07313
G1 X60.144 Y3.365 E5.00287
G1 X59.002 Y2.775 E0.15716
G1 X57.502 Y0.694 E0.31365
G1 X56.818 Y-.255 E0.07938
;MESH:NONMESH
G0 F2646 X56.886 Y-.219
G0 X57.977 Y0.837
G0 X58.473 Y1.09
;TIME_ELAPSED:105.35
;LAYER:15
M106 S19.4
;MESH:LeftgInput.stl
G0 F2805 X58.473 Y1.09 Z16.1
;TYPE:WALL-INNER
G1 F2055 X58.742 Y1.09 E0.04111
G1 X59.243 Y1.09 E0.07657
G1 X59.701 Y1.09 E0.07
G1 X101.363 Y1.095 E6.36744
G1 X101.572 Y1.096 E0.03194
G1 X101.905 Y1.097 E0.05089
G1 X101.572 Y1.803 E0.06267
G1 X101.363 Y1.965 E0.0213
G1 X59.701 Y2.047 E3.88037
G1 X59.243 Y1.911 E0.04418
G1 X58.742 Y1.509 E0.0498
G1 X58.473 Y1.09 E0.02966
G0 F2805 X56.124 Y-.254
G0 X56.001 Y-.26
;TYPE:WALL-OUTER
G1 F915 X57.098 Y-.26 E0.201195
G1 X57.099 Y-.26 E0.00018
G1 X103.088 Y-.253 E8.434515
G1 X103.089 Y-.253 E0.00018
G1 X104.034 Y-.253 E0.17331
G1 X103.631 Y0.602 E0.06677 F1830
G1 X102.654 Y2.673 E0.27998
G1 X101.825 Y3.314 E0.12813
G1 X59.505 Y3.397 E5.17442
G1 X58.606 Y3.131 E0.11463
G1 X57.725 Y2.424 E0.13812
G1 X56.594 Y0.664 E0.25579
G1 X56.001 Y-.26 E0.07532
;MESH:NONMESH
G0 F2805 X56.124 Y-.254
G0 X58.286 Y0.987
G0 X57.658 Y1.09
;TIME_ELAPSED:112.30
;LAYER:16
M106 S20.7
;MESH:LeftgInput.stl
G0 F2964 X57.658 Y1.09 Z17.1
;TYPE:WALL-INNER
G1 F2124 X57.902 Y1.09 E0.03729
G1 X58.63 Y1.09 E0.11126
G1 X58.714 Y1.09 E0.01284
